svg/u1f373.svg

<svg viewBox="0 0 128 128" xmlns="http://www.w3.org/2000/svg">
  <path d="M102.59,105.54l-4.93,2.7l1.69,2.5c0,0,1.35-1.15,2.77-0.14c1.42,1.01,4.19,4.39,4.66,5.54 c0.47,1.15-0.07,3.38-0.07,3.38l4.39,1.08l1.76-3.24L102.59,105.54z" fill="#6C6D6F"/>
  <path d="M111.88,112.41c-4.07-5.49-23.56-31.95-23.56-31.95s25.22-21.41,8.46-53.32 C90.91,15.93,81.63,9.86,72.24,7.1c-12.89-3.79-24.65-1.57-33.86,3.81c-8.02,4.69-14.53,9.92-19.33,21.02 c-4.23,9.78-6.55,21.68,0.28,36.11c7.19,15.2,18.43,21.67,29.2,23.7c16.26,3.06,26.92-2.38,28.5-3.24c0,0,15.21,19.68,23.43,30.17 c4.1,5.23,8.25,6.71,11.43,4.59C115.33,120.97,115.44,117.2,111.88,112.41z M111.88,112.41c-4.07-5.49-23.56-31.95-23.56-31.95 s25.22-21.41,8.46-53.32C90.91,15.93,81.63,9.86,72.24,7.1c-12.89-3.79-24.65-1.57-33.86,3.81c-8.02,4.69-14.53,9.92-19.33,21.02 c-4.23,9.78-6.55,21.68,0.28,36.11c7.19,15.2,18.43,21.67,29.2,23.7c16.26,3.06,26.92-2.38,28.5-3.24 M108.79,118.07 c-1.59,1.23-3.43-0.81-6.22-4.27c-2.63-3.27-2.74-4.66-1.72-5.58c1.26-1.13,2.7,0.18,4.91,2.82S110.25,116.95,108.79,118.07z" fill="#2F2F2F"/>
  <path d="M109.15,125.7c-2.79,0.28-5.17-0.12-9.48-5.07c-7.76-8.9-20.14-26.29-23.05-30.46 c-3.56,1.7-13.76,5.59-28.32,2.85c-9.31-1.75-22.09-7.42-30.14-24.42c-7.67-16.22-3.91-29.02-0.3-37.19 c4.86-11,11.42-16.69,19.86-21.63c10.42-6.09,22.8-7.48,34.88-3.93c7.81,2.3,18.55,7.75,25.33,20.68 c17.04,32.46-8.5,54.89-8.76,55.11l-1.51-1.87c0.06-0.05,5.99-5.64,10.02-14.64c5.37-11.99,4.67-24.57-2.06-37.4 C89.27,15.62,79.2,10.5,71.87,8.35c-14.59-4.29-25.91-0.36-32.83,3.68c-8.23,4.81-14.48,10.65-18.79,20.41 c-3.12,7.07-6.95,19.78,0.26,35.04c7.57,16.02,19.55,21.34,28.27,22.98c15.57,2.93,25.49-1.7,27.37-2.73l1.03-0.56l0.67,0.97 c0.14,0.21,14.72,20.88,23.15,30.86c3.71,4.39,5.86,5.1,8.36,4.82c2.98-0.34,5.3-2.96,5.13-5.71 C115.34,120.36,113.68,125.24,109.15,125.7z" fill="#6C6D6F"/>
  <path d="M39,18.9c-13.15,8.59-22.71,30.14-9.7,50.41c12.45,19.4,37.94,16.59,50.07,8.54 c12.72-8.44,21.28-31.3,7.95-50.25C76.8,12.63,56.6,7.41,39,18.9z" fill="#6C6D6F"/>
  <path d="M39.98,63.32l-3.8,7.76c0,0,2.94,5.17,11.57,5.37c2.63,0.06,5.45-0.29,7.87,0.56 c5.53,1.94,11.78,1.83,16.1-0.56C78,72.98,86.04,63.8,86.81,50.73c0.99-16.69-8.01-24.42-8.01-24.42L39.98,63.32z" fill="#54585B"/>
  <path d="M33.46,67.68c6.02,9.63,16.16,6.68,20.38,6.79s3.91,1.54,10.04,1.42c7.46-0.14,18.16-9.92,20.27-25.1 c2.39-17.2-6.38-32.67-20.63-33.12c-5.54-0.17-10.73,1.21-14.73,6.48c-4.24,5.58-4.51,12.84-6.88,15.62 C37.91,44.48,25.34,54.69,33.46,67.68z" fill="#FFFFFF"/>
  <path d="M49.88,55.47c4.13,6.01,14.42,7.59,19.99,2.15c5.56-5.44,5.34-13.83,0.45-18.82 c-5.95-6.08-15.1-5.1-19.99,0.79C45.72,45.17,47.13,51.47,49.88,55.47z" fill="#FF8E00"/>
  <path d="M52.71,52.74c4.07,0.74,3.55-5.32,5.43-7.65c1.88-2.33,5.87-2.33,5.65-5.21s-6.54-3.44-10.53,1.33 C49.38,45.86,49.06,52.07,52.71,52.74z" fill="#FFB502"/>
</svg>

<svg viewBox="0 0 128 128" xmlns="http://www.w3.org/2000/svg">
  <defs/>
  <path d="M102.59,105.54 L97.66,108.24 L99.35,110.74 C99.35,110.74 100.7,109.59 102.12,110.6 C103.54,111.61 106.31,114.99 106.78,116.14 C107.25,117.29 106.71,119.52 106.71,119.52 L111.1,120.6 L112.86,117.36 L102.59,105.54 Z" fill="#6C6D6F"/>
  <path d="M111.88,112.41 C107.81,106.92 88.32,80.46 88.32,80.46 C88.32,80.46 113.54,59.05 96.78,27.14 C90.91,15.93 81.63,9.86 72.24,7.1 C59.35,3.31 47.59,5.53 38.38,10.91 C30.36,15.6 23.85,20.83 19.05,31.93 C14.82,41.71 12.5,53.61 19.33,68.04 C26.52,83.24 37.76,89.71 48.53,91.74 C64.79,94.8 75.45,89.36 77.03,88.5 C77.03,88.5 92.24,108.18 100.46,118.67 C104.56,123.9 108.71,125.38 111.89,123.26 C115.33,120.97 115.44,117.2 111.88,112.41 Z M111.88,112.41 C107.81,106.92 88.32,80.46 88.32,80.46 C88.32,80.46 113.54,59.05 96.78,27.14 C90.91,15.93 81.63,9.86 72.24,7.1 C59.35,3.31 47.59,5.53 38.38,10.91 C30.36,15.6 23.85,20.83 19.05,31.93 C14.82,41.71 12.5,53.61 19.33,68.04 C26.52,83.24 37.76,89.71 48.53,91.74 C64.79,94.8 75.45,89.36 77.03,88.5 M108.79,118.07 C107.2,119.3 105.36,117.26 102.57,113.8 C99.94,110.53 99.83,109.14 100.85,108.22 C102.11,107.09 103.55,108.4 105.76,111.04 C107.97,113.68 110.25,116.95 108.79,118.07 Z" fill="#2F2F2F"/>
  <path d="M109.15,125.7 C106.36,125.98 103.98,125.58 99.67,120.63 C91.91,111.73 79.53,94.34 76.62,90.17 C73.06,91.87 62.86,95.76 48.3,93.02 C38.99,91.27 26.21,85.6 18.16,68.6 C10.49,52.38 14.25,39.58 17.86,31.41 C22.72,20.41 29.28,14.72 37.72,9.78 C48.14,3.69 60.52,2.3 72.6,5.85 C80.41,8.15 91.15,13.6 97.93,26.53 C114.97,58.99 89.43,81.42 89.17,81.64 L87.66,79.77 C87.72,79.72 93.65,74.13 97.68,65.13 C103.05,53.14 102.35,40.56 95.62,27.73 C89.27,15.62 79.2,10.5 71.87,8.35 C57.28,4.06 45.96,7.99 39.04,12.03 C30.81,16.84 24.56,22.68 20.25,32.44 C17.13,39.51 13.3,52.22 20.51,67.48 C28.08,83.5 40.06,88.82 48.78,90.46 C64.35,93.39 74.27,88.76 76.15,87.73 L77.18,87.17 L77.85,88.14 C77.99,88.35 92.57,109.02 101,119 C104.71,123.39 106.86,124.1 109.36,123.82 C112.34,123.48 114.66,120.86 114.49,118.11 C115.34,120.36 113.68,125.24 109.15,125.7 Z" fill="#6C6D6F"/>
  <path d="M39,18.9 C25.85,27.49 16.29,49.04 29.3,69.31 C41.75,88.71 67.24,85.9 79.37,77.85 C92.09,69.41 100.65,46.55 87.32,27.6 C76.8,12.63 56.6,7.41 39,18.9 Z" fill="#6C6D6F"/>
  <path d="M39.98,63.32 L36.18,71.08 C36.18,71.08 39.12,76.25 47.75,76.45 C50.38,76.51 53.2,76.16 55.62,77.01 C61.15,78.95 67.4,78.84 71.72,76.45 C78,72.98 86.04,63.8 86.81,50.73 C87.8,34.04 78.8,26.31 78.8,26.31 L39.98,63.32 Z" fill="#54585B"/>
  <path d="M33.46,67.68 C39.48,77.31 49.62,74.36 53.84,74.47 C58.06,74.58 57.75,76.01 63.88,75.89 C71.34,75.75 82.04,65.97 84.15,50.79 C86.54,33.59 77.77,18.12 63.52,17.67 C57.98,17.5 52.79,18.88 48.79,24.15 C44.55,29.73 44.28,36.99 41.91,39.77 C37.91,44.48 25.34,54.69 33.46,67.68 Z" fill="#FFFFFF"/>
  <path d="M49.88,55.47 C54.01,61.48 64.3,63.06 69.87,57.62 C75.43,52.18 75.21,43.79 70.32,38.8 C64.37,32.72 55.22,33.7 50.33,39.59 C45.72,45.17 47.13,51.47 49.88,55.47 Z" fill="#FF8E00"/>
  <path d="M52.71,52.74 C56.78,53.48 56.26,47.42 58.14,45.09 C60.02,42.76 64.01,42.76 63.79,39.88 C63.57,37 57.25,36.44 53.26,41.21 C49.38,45.86 49.06,52.07 52.71,52.74 Z" fill="#FFB502"/>
</svg>
